static/img/kroki/ef4d4888f3ae397ba8cff5d5c0177524.svg

<?xml version="1.0" encoding="us-ascii" standalone="no"?><svg xmlns="http://www.w3.org/2000/svg" xmlns:xlink="http://www.w3.org/1999/xlink" contentStyleType="text/css" height="451px" preserveAspectRatio="none" style="width:626px;height:451px;" version="1.1" viewBox="0 0 626 451" width="626px" zoomAndPan="magnify"><defs/><g><!--class digitalocean_droplet--><g id="elem_digitalocean_droplet"><rect codeLine="22" fill="#3D176E" height="39.7891" id="digitalocean_droplet" rx="2.5" ry="2.5" style="stroke:#000D19;stroke-width:0.5;" width="211" x="7" y="206.58"/><ellipse cx="22" cy="226.4745" fill="#ADD1B2" rx="11" ry="11" style="stroke:#181818;stroke-width:1.0;"/><path d="M24.9688,232.1152 Q24.3906,232.412 23.75,232.5527 Q23.1094,232.7089 22.4063,232.7089 Q19.9063,232.7089 18.5781,231.0683 Q17.2656,229.412 17.2656,226.287 Q17.2656,223.162 18.5781,221.5058 Q19.9063,219.8495 22.4063,219.8495 Q23.1094,219.8495 23.75,220.0058 Q24.4063,220.162 24.9688,220.4589 L24.9688,223.1777 Q24.3438,222.5995 23.75,222.3339 Q23.1563,222.0527 22.5313,222.0527 Q21.1875,222.0527 20.5,223.1308 Q19.8125,224.1933 19.8125,226.287 Q19.8125,228.3808 20.5,229.4589 Q21.1875,230.5214 22.5313,230.5214 Q23.1563,230.5214 23.75,230.2558 Q24.3438,229.9745 24.9688,229.3964 L24.9688,232.1152 Z " fill="#000000"/><text fill="#D9B8FF" font-family="Helvetica" font-size="17" lengthAdjust="spacing" textLength="169" x="41" y="232.3598">digitalocean_droplet</text></g><!--class digitalocean_region--><g id="elem_digitalocean_region"><rect codeLine="24" fill="#3D176E" height="39.7891" id="digitalocean_region" rx="2.5" ry="2.5" style="stroke:#000D19;stroke-width:0.5;" width="205" x="324" y="106.79"/><ellipse cx="339" cy="126.6845" fill="#ADD1B2" rx="11" ry="11" style="stroke:#181818;stroke-width:1.0;"/><path d="M341.9688,132.3252 Q341.3906,132.622 340.75,132.7627 Q340.1094,132.9189 339.4063,132.9189 Q336.9063,132.9189 335.5781,131.2783 Q334.2656,129.622 334.2656,126.497 Q334.2656,123.372 335.5781,121.7158 Q336.9063,120.0595 339.4063,120.0595 Q340.1094,120.0595 340.75,120.2158 Q341.4063,120.372 341.9688,120.6689 L341.9688,123.3877 Q341.3438,122.8095 340.75,122.5439 Q340.1563,122.2627 339.5313,122.2627 Q338.1875,122.2627 337.5,123.3408 Q336.8125,124.4033 336.8125,126.497 Q336.8125,128.5908 337.5,129.6689 Q338.1875,130.7314 339.5313,130.7314 Q340.1563,130.7314 340.75,130.4658 Q341.3438,130.1845 341.9688,129.6064 L341.9688,132.3252 Z " fill="#000000"/><text fill="#D9B8FF" font-family="Helvetica" font-size="17" lengthAdjust="spacing" textLength="163" x="358" y="132.5698">digitalocean_region</text></g><!--class digitalocean_snapshot--><g id="elem_digitalocean_snapshot"><rect codeLine="26" fill="#3D176E" height="39.7891" id="digitalocean_snapshot" rx="2.5" ry="2.5" style="stroke:#000D19;stroke-width:0.5;" width="227" x="238" y="406.16"/><ellipse cx="253" cy="426.0545" fill="#ADD1B2" rx="11" ry="11" style="stroke:#181818;stroke-width:1.0;"/><path d="M255.9688,431.6952 Q255.3906,431.992 254.75,432.1327 Q254.1094,432.2889 253.4063,432.2889 Q250.9063,432.2889 249.5781,430.6483 Q248.2656,428.992 248.2656,425.867 Q248.2656,422.742 249.5781,421.0858 Q250.9063,419.4295 253.4063,419.4295 Q254.1094,419.4295 254.75,419.5858 Q255.4063,419.742 255.9688,420.0389 L255.9688,422.7577 Q255.3438,422.1795 254.75,421.9139 Q254.1563,421.6327 253.5313,421.6327 Q252.1875,421.6327 251.5,422.7108 Q250.8125,423.7733 250.8125,425.867 Q250.8125,427.9608 251.5,429.0389 Q252.1875,430.1014 253.5313,430.1014 Q254.1563,430.1014 254.75,429.8358 Q255.3438,429.5545 255.9688,428.9764 L255.9688,431.6952 Z " fill="#000000"/><text fill="#D9B8FF" font-family="Helvetica" font-size="17" lengthAdjust="spacing" textLength="185" x="272" y="431.9398">digitalocean_snapshot</text></g><!--class digitalocean_team--><g id="elem_digitalocean_team"><rect codeLine="28" fill="#3D176E" height="39.7891" id="digitalocean_team" rx="2.5" ry="2.5" style="stroke:#000D19;stroke-width:0.5;" width="196" x="250.5" y="7"/><ellipse cx="265.5" cy="26.8945" fill="#ADD1B2" rx="11" ry="11" style="stroke:#181818;stroke-width:1.0;"/><path d="M268.4688,32.5352 Q267.8906,32.832 267.25,32.9727 Q266.6094,33.1289 265.9063,33.1289 Q263.4063,33.1289 262.0781,31.4883 Q260.7656,29.832 260.7656,26.707 Q260.7656,23.582 262.0781,21.9258 Q263.4063,20.2695 265.9063,20.2695 Q266.6094,20.2695 267.25,20.4258 Q267.9063,20.582 268.4688,20.8789 L268.4688,23.5977 Q267.8438,23.0195 267.25,22.7539 Q266.6563,22.4727 266.0313,22.4727 Q264.6875,22.4727 264,23.5508 Q263.3125,24.6133 263.3125,26.707 Q263.3125,28.8008 264,29.8789 Q264.6875,30.9414 266.0313,30.9414 Q266.6563,30.9414 267.25,30.6758 Q267.8438,30.3945 268.4688,29.8164 L268.4688,32.5352 Z " fill="#000000"/><text fill="#D9B8FF" font-family="Helvetica" font-size="17" lengthAdjust="spacing" textLength="154" x="284.5" y="32.7798">digitalocean_team</text></g><!--class digitalocean_volume--><g id="elem_digitalocean_volume"><rect codeLine="30" fill="#3D176E" height="39.7891" id="digitalocean_volume" rx="2.5" ry="2.5" style="stroke:#000D19;stroke-width:0.5;" width="215" x="164" y="306.37"/><ellipse cx="179" cy="326.2645" fill="#ADD1B2" rx="11" ry="11" style="stroke:#181818;stroke-width:1.0;"/><path d="M181.9688,331.9052 Q181.3906,332.202 180.75,332.3427 Q180.1094,332.4989 179.4063,332.4989 Q176.9063,332.4989 175.5781,330.8583 Q174.2656,329.202 174.2656,326.077 Q174.2656,322.952 175.5781,321.2958 Q176.9063,319.6395 179.4063,319.6395 Q180.1094,319.6395 180.75,319.7958 Q181.4063,319.952 181.9688,320.2489 L181.9688,322.9677 Q181.3438,322.3895 180.75,322.1239 Q180.1563,321.8427 179.5313,321.8427 Q178.1875,321.8427 177.5,322.9208 Q176.8125,323.9833 176.8125,326.077 Q176.8125,328.1708 177.5,329.2489 Q178.1875,330.3114 179.5313,330.3114 Q180.1563,330.3114 180.75,330.0458 Q181.3438,329.7645 181.9688,329.1864 L181.9688,331.9052 Z " fill="#000000"/><text fill="#D9B8FF" font-family="Helvetica" font-size="17" lengthAdjust="spacing" textLength="173" x="198" y="332.1498">digitalocean_volume</text></g><!--link digitalocean_droplet to digitalocean_snapshot--><g id="link_digitalocean_droplet_digitalocean_snapshot"><path codeLine="32" d="M112.92,246.85 C114.51,272.67 121.03,318.33 146.5,346.16 C171.98,374 208.39,392.1 243.48,403.84 " fill="none" id="digitalocean_droplet-to-digitalocean_snapshot" style="stroke:#1A83AF;stroke-width:2.0;"/><polygon fill="#1A83AF" points="248.1,405.67,240.7788,399.0821,243.3453,404.1233,238.3041,406.6897,248.1,405.67" style="stroke:#1A83AF;stroke-width:2.0;"/></g><!--link digitalocean_droplet to digitalocean_volume--><g id="link_digitalocean_droplet_digitalocean_volume"><path codeLine="33" d="M143.91,246.8 C170.15,262.94 207.59,285.96 235.13,302.9 " fill="none" id="digitalocean_droplet-to-digitalocean_volume" style="stroke:#1A83AF;stroke-width:2.0;"/><polygon fill="#1A83AF" points="239.15,305.99,233.5739,297.8717,234.8893,303.3735,229.3875,304.6889,239.15,305.99" style="stroke:#1A83AF;stroke-width:2.0;"/></g><!--link digitalocean_region to digitalocean_droplet--><g id="link_digitalocean_region_digitalocean_droplet"><path codeLine="34" d="M364.46,147.01 C311.33,163.56 234.95,187.34 180.23,204.38 " fill="none" id="digitalocean_region-to-digitalocean_droplet" style="stroke:#1A83AF;stroke-width:2.0;"/><polygon fill="#1A83AF" points="175.68,206.11,185.4623,207.2535,180.4539,204.6235,183.0839,199.6152,175.68,206.11" style="stroke:#1A83AF;stroke-width:2.0;"/></g><!--link digitalocean_region to digitalocean_snapshot--><g id="link_digitalocean_region_digitalocean_snapshot"><path codeLine="35" d="M426.29,146.95 C425.35,185.71 420.51,275.47 396.5,346.16 C389.85,365.75 378.2,385.97 368.42,401.04 " fill="none" id="digitalocean_region-to-digitalocean_snapshot" style="stroke:#1A83AF;stroke-width:2.0;"/><polygon fill="#1A83AF" points="365.18,404.95,373.4796,399.6474,367.937,400.7788,366.8056,395.2362,365.18,404.95" style="stroke:#1A83AF;stroke-width:2.0;"/></g><!--link digitalocean_team to digitalocean_droplet--><g id="link_digitalocean_team_digitalocean_droplet"><path codeLine="36" d="M322.26,47.15 C301.19,62.81 271.01,85.69 245.5,106.79 C206.73,138.87 163.56,178.07 137.21,202.42 " fill="none" id="digitalocean_team-to-digitalocean_droplet" style="stroke:#1A83AF;stroke-width:2.0;"/><polygon fill="#1A83AF" points="133.81,205.49,143.1312,202.3096,137.4785,202.0927,137.6955,196.44,133.81,205.49" style="stroke:#1A83AF;stroke-width:2.0;"/></g><!--link digitalocean_team to digitalocean_region--><g id="link_digitalocean_team_digitalocean_region"><path codeLine="37" d="M363.91,47.22 C376.41,62.89 394.09,85.05 407.47,101.83 " fill="none" id="digitalocean_team-to-digitalocean_region" style="stroke:#1A83AF;stroke-width:2.0;"/><polygon fill="#1A83AF" points="411.12,105.41,408.6297,95.8812,408,101.5029,402.3783,100.8731,411.12,105.41" style="stroke:#1A83AF;stroke-width:2.0;"/></g><!--link digitalocean_team to digitalocean_snapshot--><g id="link_digitalocean_team_digitalocean_snapshot"><path codeLine="38" d="M446.99,43.04 C484.61,54.15 523.87,73.41 546.5,106.79 C619.71,214.78 457.16,349.76 384.4,402.48 " fill="none" id="digitalocean_team-to-digitalocean_snapshot" style="stroke:#1A83AF;stroke-width:2.0;"/><polygon fill="#1A83AF" points="380.74,405.84,390.3786,403.8158,384.7941,402.9136,385.6963,397.3291,380.74,405.84" style="stroke:#1A83AF;stroke-width:2.0;"/></g><!--link digitalocean_team to digitalocean_volume--><g id="link_digitalocean_team_digitalocean_volume"><path codeLine="39" d="M335.9,47.19 C326.36,62.68 313.71,85.32 306.5,106.79 C283.77,174.47 275.6,259.04 272.82,300.29 " fill="none" id="digitalocean_team-to-digitalocean_volume" style="stroke:#1A83AF;stroke-width:2.0;"/><polygon fill="#1A83AF" points="272.45,305.06,277.0083,296.3295,272.7646,300.0699,269.0241,295.8262,272.45,305.06" style="stroke:#1A83AF;stroke-width:2.0;"/></g><!--link digitalocean_volume to digitalocean_snapshot--><g id="link_digitalocean_volume_digitalocean_snapshot"><path codeLine="40" d="M287.31,346.59 C300.13,362.26 318.26,384.42 331.98,401.2 " fill="none" id="digitalocean_volume-to-digitalocean_snapshot" style="stroke:#1A83AF;stroke-width:2.0;"/><polygon fill="#1A83AF" points="335.73,404.78,333.142,395.2773,332.57,400.9051,326.9422,400.3332,335.73,404.78" style="stroke:#1A83AF;stroke-width:2.0;"/></g><!--SRC=[dP5HJy8m58NV-HLDU2PX4WLUJ2O9qHTYn3TZJ5bljuQkTxaj43J-Tvb3KxUEPRxsVEUUSsyp9O11NhWZoo7V0Dc1tIfJSE8vYudmi42Dn8PISZcPriKb6jS9h7WEx1xq7fnAU9rupbIoDM0jk_AaEvviKyAT4TLuHzpOamJ6UTH2SsjZvqXjTWwyCcA-cKbP9-j3XnCHJM-WWI49e3Co7ez5DAyZdL4Nz_ubrkeTMEGVROKE6ZKR4T_KnPObuPLiBFgZjtPyv48eax9hx-sfwaG6wC_xEkC23oKjkRP-Z7L0WEvOmAAn5SndGaw3y4CRd9INOqAbod6D2N3p9WWB3Ovz33v3Ca6gqBIfrl32PjZgTd3grQBjKUzEnolLOA7Hop2APvDu-Jgw3QVszLM9Wz1-xQRps9wkSCNlS_ICwl1KJNfP_jKjTBlp3tOdVG40]--></g></svg>

<svg xmlns="http://www.w3.org/2000/svg" width="626" height="451" preserveAspectRatio="none" style="width:626px;height:451px"><rect width="211" height="39.789" x="7" y="206.58" fill="#3D176E" rx="2.5" ry="2.5" style="stroke:#000d19;stroke-width:.5"/><circle cx="22" cy="226.475" r="11" fill="#ADD1B2" style="stroke:#181818;stroke-width:1"/><path d="M24.969 232.115q-.578.297-1.219.438-.64.156-1.344.156-2.5 0-3.828-1.64-1.312-1.657-1.312-4.782t1.312-4.781q1.328-1.656 3.828-1.656.703 0 1.344.156.656.156 1.219.453v2.719q-.625-.578-1.219-.844-.594-.281-1.219-.281-1.343 0-2.031 1.078-.688 1.062-.688 3.156 0 2.094.688 3.172.688 1.062 2.031 1.062.625 0 1.219-.265.594-.281 1.219-.86v2.72Z"/><text x="41" y="232.36" fill="#D9B8FF" font-family="Helvetica" font-size="17" textLength="169">digitalocean_droplet</text><rect width="205" height="39.789" x="324" y="106.79" fill="#3D176E" rx="2.5" ry="2.5" style="stroke:#000d19;stroke-width:.5"/><circle cx="339" cy="126.684" r="11" fill="#ADD1B2" style="stroke:#181818;stroke-width:1"/><path d="M341.969 132.325q-.578.297-1.219.438-.64.156-1.344.156-2.5 0-3.828-1.64-1.312-1.657-1.312-4.782t1.312-4.781q1.328-1.656 3.828-1.656.703 0 1.344.156.656.156 1.219.453v2.719q-.625-.579-1.219-.844-.594-.281-1.219-.281-1.344 0-2.031 1.078-.688 1.062-.688 3.156 0 2.094.688 3.172.688 1.062 2.031 1.062.625 0 1.219-.265.594-.281 1.219-.86v2.72Z"/><text x="358" y="132.57" fill="#D9B8FF" font-family="Helvetica" font-size="17" textLength="163">digitalocean_region</text><rect width="227" height="39.789" x="238" y="406.16" fill="#3D176E" rx="2.5" ry="2.5" style="stroke:#000d19;stroke-width:.5"/><circle cx="253" cy="426.055" r="11" fill="#ADD1B2" style="stroke:#181818;stroke-width:1"/><path d="M255.969 431.695q-.578.297-1.219.438-.64.156-1.344.156-2.5 0-3.828-1.64-1.312-1.657-1.312-4.782t1.312-4.781q1.328-1.656 3.828-1.656.703 0 1.344.156.656.156 1.219.453v2.719q-.625-.578-1.219-.844-.594-.281-1.219-.281-1.344 0-2.031 1.078-.688 1.062-.688 3.156 0 2.094.688 3.172.688 1.062 2.031 1.062.625 0 1.219-.265.594-.281 1.219-.86v2.72Z"/><text x="272" y="431.94" fill="#D9B8FF" font-family="Helvetica" font-size="17" textLength="185">digitalocean_snapshot</text><rect width="196" height="39.789" x="250.5" y="7" fill="#3D176E" rx="2.5" ry="2.5" style="stroke:#000d19;stroke-width:.5"/><circle cx="265.5" cy="26.895" r="11" fill="#ADD1B2" style="stroke:#181818;stroke-width:1"/><path d="M268.469 32.535q-.578.297-1.219.438-.64.156-1.344.156-2.5 0-3.828-1.64-1.312-1.657-1.312-4.782t1.312-4.781q1.328-1.656 3.828-1.656.703 0 1.344.156.656.156 1.219.453v2.719q-.625-.578-1.219-.844-.594-.281-1.219-.281-1.344 0-2.031 1.078-.688 1.062-.688 3.156 0 2.094.688 3.172.688 1.062 2.031 1.062.625 0 1.219-.265.594-.281 1.219-.86v2.72Z"/><text x="284.5" y="32.78" fill="#D9B8FF" font-family="Helvetica" font-size="17" textLength="154">digitalocean_team</text><rect width="215" height="39.789" x="164" y="306.37" fill="#3D176E" rx="2.5" ry="2.5" style="stroke:#000d19;stroke-width:.5"/><circle cx="179" cy="326.264" r="11" fill="#ADD1B2" style="stroke:#181818;stroke-width:1"/><path d="M181.969 331.905q-.578.297-1.219.438-.64.156-1.344.156-2.5 0-3.828-1.64-1.312-1.657-1.312-4.782t1.312-4.781q1.328-1.656 3.828-1.656.703 0 1.344.156.656.156 1.219.453v2.719q-.625-.579-1.219-.844-.594-.281-1.219-.281-1.344 0-2.031 1.078-.688 1.062-.688 3.156 0 2.094.688 3.172.688 1.062 2.031 1.062.625 0 1.219-.265.594-.281 1.219-.86v2.72Z"/><text x="198" y="332.15" fill="#D9B8FF" font-family="Helvetica" font-size="17" textLength="173">digitalocean_volume</text><path fill="none" d="M112.92 246.85c1.59 25.82 8.11 71.48 33.58 99.31 25.48 27.84 61.89 45.94 96.98 57.68" style="stroke:#1a83af;stroke-width:2"/><path fill="#1A83AF" d="m248.1 405.67-7.321-6.588 2.566 5.041-5.04 2.567 9.795-1.02z" style="stroke:#1a83af;stroke-width:2"/><path fill="none" d="M143.91 246.8c26.24 16.14 63.68 39.16 91.22 56.1" style="stroke:#1a83af;stroke-width:2"/><path fill="#1A83AF" d="m239.15 305.99-5.576-8.118 1.315 5.501-5.502 1.316 9.763 1.301z" style="stroke:#1a83af;stroke-width:2"/><path fill="none" d="M364.46 147.01c-53.13 16.55-129.51 40.33-184.23 57.37" style="stroke:#1a83af;stroke-width:2"/><path fill="#1A83AF" d="m175.68 206.11 9.782 1.143-5.008-2.63 2.63-5.008-7.404 6.495z" style="stroke:#1a83af;stroke-width:2"/><path fill="none" d="M426.29 146.95c-.94 38.76-5.78 128.52-29.79 199.21-6.65 19.59-18.3 39.81-28.08 54.88" style="stroke:#1a83af;stroke-width:2"/><path fill="#1A83AF" d="m365.18 404.95 8.3-5.303-5.543 1.132-1.131-5.543-1.626 9.714z" style="stroke:#1a83af;stroke-width:2"/><path fill="none" d="M322.26 47.15c-21.07 15.66-51.25 38.54-76.76 59.64-38.77 32.08-81.94 71.28-108.29 95.63" style="stroke:#1a83af;stroke-width:2"/><path fill="#1A83AF" d="m133.81 205.49 9.321-3.18-5.653-.217.218-5.653-3.886 9.05z" style="stroke:#1a83af;stroke-width:2"/><path fill="none" d="M363.91 47.22c12.5 15.67 30.18 37.83 43.56 54.61" style="stroke:#1a83af;stroke-width:2"/><path fill="#1A83AF" d="m411.12 105.41-2.49-9.529-.63 5.622-5.622-.63 8.742 4.537z" style="stroke:#1a83af;stroke-width:2"/><path fill="none" d="M446.99 43.04c37.62 11.11 76.88 30.37 99.51 63.75 73.21 107.99-89.34 242.97-162.1 295.69" style="stroke:#1a83af;stroke-width:2"/><path fill="#1A83AF" d="m380.74 405.84 9.639-2.024-5.585-.902.902-5.585-4.956 8.511z" style="stroke:#1a83af;stroke-width:2"/><path fill="none" d="M335.9 47.19c-9.54 15.49-22.19 38.13-29.4 59.6-22.73 67.68-30.9 152.25-33.68 193.5" style="stroke:#1a83af;stroke-width:2"/><path fill="#1A83AF" d="m272.45 305.06 4.558-8.73-4.243 3.74-3.74-4.244 3.425 9.234z" style="stroke:#1a83af;stroke-width:2"/><path fill="none" d="M287.31 346.59c12.82 15.67 30.95 37.83 44.67 54.61" style="stroke:#1a83af;stroke-width:2"/><path fill="#1A83AF" d="m335.73 404.78-2.588-9.503-.572 5.628-5.628-.572 8.788 4.447z" style="stroke:#1a83af;stroke-width:2"/></svg>
